src/assets/material-icon-theme/icons/lilypond.svg

<svg viewBox="0 0 24 24" xmlns="http://www.w3.org/2000/svg"><path d="M21 3v12.5a3.5 3.5 0 0 1-3.5 3.5 3.5 3.5 0 0 1-3.5-3.5 3.5 3.5 0 0 1 3.5-3.5c.54 0 1.05.12 1.5.34V6.47L9 8.6v8.9A3.5 3.5 0 0 1 5.5 21 3.5 3.5 0 0 1 2 17.5 3.5 3.5 0 0 1 5.5 14c.54 0 1.05.12 1.5.34V6l14-3z" style="fill:#66bb6a"/></svg>

<svg version="1.1" viewBox="0 0 24 24" xmlns="http://www.w3.org/2000/svg">
 <path d="M21,3V15.5A3.5,3.5 0 0,1 17.5,19A3.5,3.5 0 0,1 14,15.5A3.5,3.5 0 0,1 17.5,12C18.04,12 18.55,12.12 19,12.34V6.47L9,8.6V17.5A3.5,3.5 0 0,1 5.5,21A3.5,3.5 0 0,1 2,17.5A3.5,3.5 0 0,1 5.5,14C6.04,14 6.55,14.12 7,14.34V6L21,3Z" style="fill:#66bb6a"/>
</svg>
